Newaita/actions/32/format-stroke-color.svg

<?xml version="1.0" encoding="UTF-8"?>
<svg xmlns="http://www.w3.org/2000/svg" xmlns:xlink="http://www.w3.org/1999/xlink" width="32pt" height="32pt" viewBox="0 0 32 32" version="1.1">
<g id="surface1">
<path style=" stroke:none;fill-rule:nonzero;fill:rgb(100%,43.921569%,26.274511%);fill-opacity:1;" d="M 3.308594 1.574219 C 2.207031 1.574219 1.324219 2.457031 1.324219 3.558594 L 1.324219 28.695312 C 1.324219 29.792969 2.207031 30.679688 3.308594 30.679688 L 28.445312 30.679688 C 29.542969 30.679688 30.429688 29.792969 30.429688 28.695312 L 30.429688 3.558594 C 30.429688 2.457031 29.542969 1.574219 28.445312 1.574219 Z M 4.628906 3.558594 L 27.121094 3.558594 C 27.855469 3.558594 28.445312 4.148438 28.445312 4.878906 L 28.445312 27.371094 C 28.445312 28.105469 27.855469 28.695312 27.121094 28.695312 L 4.628906 28.695312 C 3.898438 28.695312 3.308594 28.105469 3.308594 27.371094 L 3.308594 4.878906 C 3.308594 4.148438 3.898438 3.558594 4.628906 3.558594 Z M 4.628906 3.558594 "/>
<path style=" stroke:none;fill-rule:nonzero;fill:rgb(25.882354%,25.882354%,25.882354%);fill-opacity:1;" d="M 4.628906 3.558594 C 3.898438 3.558594 3.308594 4.148438 3.308594 4.878906 L 3.308594 27.371094 C 3.308594 28.105469 3.898438 28.695312 4.628906 28.695312 L 27.121094 28.695312 C 27.855469 28.695312 28.445312 28.105469 28.445312 27.371094 L 28.445312 4.878906 C 28.445312 4.148438 27.855469 3.558594 27.121094 3.558594 Z M 5.953125 5.542969 L 25.800781 5.542969 C 26.164062 5.542969 26.460938 5.835938 26.460938 6.203125 L 26.460938 26.050781 C 26.460938 26.414062 26.164062 26.710938 25.800781 26.710938 L 5.953125 26.710938 C 5.585938 26.710938 5.292969 26.414062 5.292969 26.050781 L 5.292969 6.203125 C 5.292969 5.835938 5.585938 5.542969 5.953125 5.542969 Z M 5.953125 5.542969 "/>
</g>
</svg>

<svg xmlns="http://www.w3.org/2000/svg" width="32pt" height="32pt" viewBox="0 0 32 32"><path d="M3.309 1.574A1.977 1.977 0 0 0 1.324 3.56v25.136A1.98 1.98 0 0 0 3.31 30.68h25.136a1.982 1.982 0 0 0 1.985-1.985V3.56a1.98 1.98 0 0 0-1.985-1.985zm1.32 1.985H27.12c.734 0 1.324.59 1.324 1.32V27.37a1.32 1.32 0 0 1-1.324 1.324H4.63c-.73 0-1.32-.59-1.32-1.324V4.88c0-.73.59-1.32 1.32-1.32zm0 0" fill="#ff7043"/><path d="M4.629 3.559c-.73 0-1.32.59-1.32 1.32V27.37c0 .734.59 1.324 1.32 1.324H27.12a1.32 1.32 0 0 0 1.324-1.324V4.88c0-.73-.59-1.32-1.324-1.32zm1.324 1.984h19.848a.66.66 0 0 1 .66.66v19.848c0 .363-.297.66-.66.66H5.953a.66.66 0 0 1-.66-.66V6.203c0-.367.293-.66.66-.66zm0 0" fill="#424242"/></svg>
